svg/u1f427.svg

<svg viewBox="0 0 128 128" xmlns="http://www.w3.org/2000/svg">
  <path d="M69.77,112.75c0,0-6.69,4.63-7.32,5.44c-0.63,0.8-0.9,1.74,0.32,2.11s3.16-0.14,3.16-0.14 s-0.97,1.44,1.31,1.97c1.53,0.35,4.5-1.2,4.5-1.2s-0.49,1.37,1.55,1.65c2.94,0.41,8.02-5.9,9.06-7.87s0.56-3.66,0.56-3.66 L69.77,112.75z" fill="#ADADB7"/>
  <path d="M52.17,108.59c0,0-8.21,4.92-8.87,5.2c-0.66,0.28-3.22,1.71-2.25,3.28c0.75,1.22,3.66,0.28,3.66,0.28 s-0.63,1.37,1.03,2.16c1.67,0.79,5.16-1.13,5.16-1.13s-0.39,1.71,1.88,1.97c2.91,0.34,9.39-8.54,9.39-8.54L52.17,108.59z" fill="#ADADB7"/>
  <path d="M84.97,38.37c0,0,1.13-17.6-7.46-25.76S58.36,5.38,55.12,6.23c-3.24,0.84-8.88,2.88-12.86,8.63 c-5.26,7.6-3.1,14.73-5.54,19.33c-1.92,3.63-7.23,14.03-8.07,21.49s-1.41,21.59-0.99,26.61c0.41,4.91,0.61,9.24,3.24,13.23 c1.57,2.39,4.7,2.44,5.77,1.13c0.63-0.77,0.42-1.9,0.42-1.9s4.28,6.38,6.01,8.52c2.82,3.47,8.67,9.06,18.21,10.7 c12.58,2.16,33.22-4.5,33.22-4.5s1.77,1.2,4.58,1.34c1.43,0.07,3.1-1.34,2.89-2.75c-0.21-1.41-1.83-3.38-2.18-4.15 c-0.35-0.77,0.73-22.31-2.65-36.95S87.5,40.34,84.97,38.37z" fill="#4D4D4D"/>
  <linearGradient id="SVGID_1_" gradientUnits="userSpaceOnUse" x1="55.562" x2="69.4593" y1="105.7481" y2="34.2527">
    <stop offset="0.3618" stop-color="#FFFFFF"/>
    <stop offset="0.4122" stop-color="#FFFAEF"/>
    <stop offset="0.5102" stop-color="#FFEDC7"/>
    <stop offset="0.6459" stop-color="#FFD985"/>
    <stop offset="0.7882" stop-color="#FFC139"/>
    <stop offset="0.8168" stop-color="#FFB92E"/>
    <stop offset="0.9438" stop-color="#FF9700"/>
  </linearGradient>
  <path d="M39.78,38.37c0,0-6.1,6.34-6.66,15.06c-0.47,7.33-0.52,20.69,3.71,32.66 s12.25,21.87,23.93,24.21c12.64,2.54,26.65-1.92,27.08-2.06c0.42-0.14-2.53-3.28-4.6-6.38c-1.57-2.36-3.61-7.6-3.61-7.6 s0.14,4.04-2.46,4.36c-1.98,0.25-4.79-1.69-6.9-6.34c-2.11-4.65-4.98-17.27-5.77-27.66c-0.7-9.29,0.25-15.27,1.2-17.88 c0.57-1.57,1.72-2.64,1.72-2.64s3.2,3.89,8.27,2.57c4.88-1.27,6.1-6.62,5.26-10.98c-1.01-5.21-3.1-10.84-10.18-9.29 c-8.04,1.76-5.24,12.14-5.24,12.14s-5.74,4.68-13.76,3.84C43.72,41.54,39.78,38.37,39.78,38.37z" fill="url(#SVGID_1_)"/>
  <path d="M47.1,18.15c0,0-0.97-3.62-3.43-4.08c-4.74-0.89-11.31,2.21-13.98,3.85 c-2.16,1.33-5.12,4.22-4.22,5.63s5.77,0.05,9.95,0.75c2.89,0.49,6.9,1.69,8.59,1.64c1.35-0.04,3.1-2.35,3.33-3.43 C47.57,21.43,47.57,19.51,47.1,18.15z" fill="#ADADB7"/>
  <path d="M47.33,18.52c0,0-3.99,1.74-12.39,2.3c-3.56,0.24-9.57,1.97-9.57,1.97s-0.61,0.61,0.38,1.13 c0.99,0.52,6.01-0.91,9.1-1.08c5.02-0.28,14.22-0.94,14.22-0.94L47.33,18.52z" fill="#4D4D4D"/>
  <path d="M63.76,22c0.09,2.15-2,3.99-3.88,3.68c-2.37-0.4-3.53-2.66-3.28-4.9s2.29-3.42,4.18-3.21 C62.68,17.77,63.67,19.75,63.76,22z" fill="#000409"/>
</svg>

<svg viewBox="0 0 128 128" xmlns="http://www.w3.org/2000/svg">
  <defs>
    <linearGradient id="SVGID_1_" gradientUnits="userSpaceOnUse" x1="55.562" x2="69.4593" y1="105.7481" y2="34.2527">
      <stop offset="0.3618" stop-color="#FFFFFF"/>
      <stop offset="0.4122" stop-color="#FFFAEF"/>
      <stop offset="0.5102" stop-color="#FFEDC7"/>
      <stop offset="0.6459" stop-color="#FFD985"/>
      <stop offset="0.7882" stop-color="#FFC139"/>
      <stop offset="0.8168" stop-color="#FFB92E"/>
      <stop offset="0.9438" stop-color="#FF9700"/>
    </linearGradient>
  </defs>
  <path d="M69.77,112.75 C69.77,112.75 63.08,117.38 62.45,118.19 C61.82,118.99 61.55,119.93 62.77,120.3 C63.99,120.67 65.93,120.16 65.93,120.16 C65.93,120.16 64.96,121.6 67.24,122.13 C68.77,122.48 71.74,120.93 71.74,120.93 C71.74,120.93 71.25,122.3 73.29,122.58 C76.23,122.99 81.31,116.68 82.35,114.71 C83.39,112.74 82.91,111.05 82.91,111.05 L69.77,112.75 Z" fill="#ADADB7"/>
  <path d="M52.17,108.59 C52.17,108.59 43.96,113.51 43.3,113.79 C42.64,114.07 40.08,115.5 41.05,117.07 C41.8,118.29 44.71,117.35 44.71,117.35 C44.71,117.35 44.08,118.72 45.74,119.51 C47.41,120.3 50.9,118.38 50.9,118.38 C50.9,118.38 50.51,120.09 52.78,120.35 C55.69,120.69 62.17,111.81 62.17,111.81 L52.17,108.59 Z" fill="#ADADB7"/>
  <path d="M84.97,38.37 C84.97,38.37 86.1,20.77 77.51,12.61 C68.92,4.45 58.36,5.38 55.12,6.23 C51.88,7.07 46.24,9.11 42.26,14.86 C37,22.46 39.16,29.59 36.72,34.19 C34.8,37.82 29.49,48.22 28.65,55.68 C27.81,63.14 27.24,77.27 27.66,82.29 C28.07,87.2 28.27,91.53 30.9,95.52 C32.47,97.91 35.6,97.96 36.67,96.65 C37.3,95.88 37.09,94.75 37.09,94.75 C37.09,94.75 41.37,101.13 43.1,103.27 C45.92,106.74 51.77,112.33 61.31,113.97 C73.89,116.13 94.53,109.47 94.53,109.47 C94.53,109.47 96.3,110.67 99.11,110.81 C100.54,110.88 102.21,109.47 102,108.06 C101.79,106.65 100.17,104.68 99.82,103.91 C99.47,103.14 100.55,81.6 97.17,66.96 C93.79,52.32 87.5,40.34 84.97,38.37 Z" fill="#4D4D4D"/>
  <path d="M39.78,38.37 C39.78,38.37 33.68,44.71 33.12,53.43 C32.65,60.76 32.6,74.12 36.83,86.09 C41.06,98.06 49.08,107.96 60.76,110.3 C73.4,112.84 87.41,108.38 87.84,108.24 C88.26,108.1 85.31,104.96 83.24,101.86 C81.67,99.5 79.63,94.26 79.63,94.26 C79.63,94.26 79.77,98.3 77.17,98.62 C75.19,98.87 72.38,96.93 70.27,92.28 C68.16,87.63 65.29,75.01 64.5,64.62 C63.8,55.33 64.75,49.35 65.7,46.74 C66.27,45.17 67.42,44.1 67.42,44.1 C67.42,44.1 70.62,47.99 75.69,46.67 C80.57,45.4 81.79,40.05 80.95,35.69 C79.94,30.48 77.85,24.85 70.77,26.4 C62.73,28.16 65.53,38.54 65.53,38.54 C65.53,38.54 59.79,43.22 51.77,42.38 C43.72,41.54 39.78,38.37 39.78,38.37 Z" fill="url(#SVGID_1_)"/>
  <path d="M47.1,18.15 C47.1,18.15 46.13,14.53 43.67,14.07 C38.93,13.18 32.36,16.28 29.69,17.92 C27.53,19.25 24.57,22.14 25.47,23.55 C26.37,24.96 31.24,23.6 35.42,24.3 C38.31,24.79 42.32,25.99 44.01,25.94 C45.36,25.9 47.11,23.59 47.34,22.51 C47.57,21.43 47.57,19.51 47.1,18.15 Z" fill="#ADADB7"/>
  <path d="M47.33,18.52 C47.33,18.52 43.34,20.26 34.94,20.82 C31.38,21.06 25.37,22.79 25.37,22.79 C25.37,22.79 24.76,23.4 25.75,23.92 C26.74,24.44 31.76,23.01 34.85,22.84 C39.87,22.56 49.07,21.9 49.07,21.9 L47.33,18.52 Z" fill="#4D4D4D"/>
  <path d="M63.76,22 C63.85,24.15 61.76,25.99 59.88,25.68 C57.51,25.28 56.35,23.02 56.6,20.78 C56.85,18.54 58.89,17.36 60.78,17.57 C62.68,17.77 63.67,19.75 63.76,22 Z" fill="#000409"/>
</svg>
